X: 25
T: Lady Louisa Lenox's Minuet
C: (Cantelo)
R: minuet
M: 3/4
L: 1/16
Z: 2010 John Chambers <jc:trillian.mit.edu>
B: Cantelo ed. "Twenty Four American Country Dances", London 1785 (Longman & Broderip)
S: http://www.archive.org/stream/bibliographyofea00sonnrich/bibliographyofea00sonnrich_djvu.txt
S: http://imslp.org/wiki/24_American_Country_Dances_(Cantelo,_Hezekiah)
K: C
%
V: 1
|:\
"f"g8 "p"(feag) | g4 f4 e4 |\
"f"e8 "p"(dcfe) | e4 d4 c4 |\
"f"A3A A4 B4 | c2de (feag) g4 |\
(g2^g2) (a2g2f2e2) | {e}d4 c2B2A2G2 |
"f"g8 "p"(feag) | g4 f4 e4 |\
"f"e8 "p"(dcfe) | e4 d4 c4 |\
"f"A3A A4 B4 | c2de fgab c'2zg |\
ac'af e4 d4 | [c8E3] z4 :|
|:\
B8 (dBdB) | c6 "Corni"[e2c2][e2c2][e2c2] |\
d8 (fdfd) | e6 "Corni"[g2e2][g2e2][g2e2] |\
^f8 (afaf) | g4 (ga)(ba) g^fed |\
egAc B4 A4 | G8 z4 |
"f"g8 "p"(feag) | g4 f4 e4 |\
"f"e8 "p"(dcfe) | e4 d4 c4 |\
"f"A3A A4 B4 | c2de fgab c'2zg |\
ac'af e4 d4 | [c8E3] z4 :|
%
V: 2 clef=bass middle=d
|: c2c2c2c2c2c2 | c2c2c2c2c2c2 | c2c2c2c2c2c2 | c2c2c2c2c2c2 |\
   f8 d4 | c8 z4 | c4 f4 f2^f2 | g4 G4 z4 |
   c2c2c2c2c2c2 | c2c2c2c2c2c2 | c2c2c2c2c2c2 | c2c2c2c2c2c2 |\
   f8 d4 | c4 z4 c4 | f4 g4 G4 | Hc4 G4 C4 :|
|: G4 z2G2G2G2 | c4 e2g2e2c2 | G4 z2G2G2G2 | c4 e2g2e2c2 |\
   D4 z2d2d2d2 | g4 G4 z4 | c4 d4 D4 | G4 g2f2e2d2 |
   c2c2c2c2c2c2 | c2c2c2c2c2c2 | c2c2c2c2c2c2 | c2c2c2c2c2c2 |\
   f8 d4 | c4 z4 c4 | f4 g4 G4 | Hc4 G4 C4 :|
%

%%sep 2 1 500

